!!!COA:	Josquin des Prez
!!!CDT:	~1450-1521/08/27
!!!COM: Viardot
!!!OTL@@LAT:Lectio actuum apostolorum
!!!OTL2@@LAT: Facta autem hac voce
!!!AGN:	Motet
!!!SCT:	NJE 19.12
!!!SCA:	New Josquin Edition 19.12
!!!voices:	5
**kern	**kern	**kern	**kern	**kern
*staff5	*staff4	*staff3	*staff2	*staff1
*Ivox	*Ivox	*Ivox	*Ivox	*Ivox
*I"Bassus	*I"Tenor2	*I"Tenor1	*I"Altus	*I"Superius
*I'B	*I'T2	*I'T1	*I'A	*I'S
*>A	*>A	*>A	*>A	*>A
*clefF4	*clefGv2	*clefGv2	*clefGv2	*clefG2
*k[]	*k[]	*k[]	*k[]	*k[]
*M2/1	*M2/1	*M2/1	*M2/1	*M2/1
*met(C|)	*met(C|)	*met(C|)	*met(C|)	*met(C|)
=1-	=1-	=1-	=1-	=1-
[0AA	0A	0r	0e	0a
=2	=2	=2	=2	=2
1AA]	1c	0r	1e	1a
1AA	1c	.	1e	1a
=3	=3	=3	=3	=3
[0D	[0d	0r	[0f	[0a
=4	=4	=4	=4	=4
0D]	1d]	0r	1f]	1a]
.	1d	.	1f	1a
=5	=5	=5	=5	=5
1D	1.d	0r	1.f	0a
1D	.	.	.	.
.	4c\	.	4e\	.
.	4B\	.	4d\	.
=6	=6	=6	=6	=6
1AA	2.c\	0r	2.e\	0a
.	4B\	.	4d\	.
1r	2c\	.	2e\	.
.	[2d\	.	[2f\	.
=7	=7	=7	=7	=7
0r	2d\]	0r	2f\]	0a
.	2c\	.	2e\	.
.	2d\	.	2f\	.
.	4c\	.	4e\	.
.	4B\	.	4d\	.
=8	=8	=8	=8	=8
0r	4A/	0r	2.e\	0cc
.	4B\	.	.	.
.	4c\	.	.	.
.	4d\	.	4f\	.
.	2e\	.	2g\	.
.	[2f\	.	[2a\	.
=9	=9	=9	=9	=9
0r	4f\]	0r	4a\]	1a
.	4e\	.	4g\	.
.	1d	.	1f	.
.	.	.	.	1a
.	4c\	.	4e\	.
.	4B\	.	4d\	.
=10	=10	=10	=10	=10
0r	1A	0r	1e	1a
.	2r	.	2r	2r
.	2A/	.	2e\	2a/
=11	=11	=11	=11	=11
0r	1D	0r	1d	1f
.	1A	.	1e	1a
=12	=12	=12	=12	=12
0r	1c	0r	1e	1a
.	1d	.	1f	1a
=13	=13	=13	=13	=13
0r	1A	0r	1e	1a
.	1r	.	1r	1r
=14||	=14||	=14||	=14||	=14||
*>B	*>B	*>B	*>B	*>B
*clefF4	*clefGv2	*clefGv2	*clefGv2	*clefG2
*k[]	*k[]	*k[]	*k[]	*k[]
*M2/1	*M2/1	*M2/1	*M2/1	*M2/1
*met(C|)	*met(C|)	*met(C|)	*met(C|)	*met(C|)
0A	0A	0r	0e	0a
=15	=15	=15	=15	=15
1A	1c	0r	1e	1a
1A	1c	.	1e	1a
=16	=16	=16	=16	=16
1D	1d	0r	1f	0a
1A	[1c	.	[1e	.
=17	=17	=17	=17	=17
0E	2c\]	0r	1e]	0g
.	2B\	.	.	.
.	1B	.	1e	.
=18	=18	=18	=18	=18
1E	1c	0r	1e	1g
1E	1B	.	1e	1g
=19	=19	=19	=19	=19
1G	1B	0r	1d	1g
1G	1B	.	[1e	1g
=20	=20	=20	=20	=20
0F	1c	0r	2e\]	0a
.	.	.	4d\	.
.	.	.	4c\	.
.	1A	.	1d	.
=21	=21	=21	=21	=21
[0E	[0B	0r	0e	[0g
=22	=22	=22	=22	=22
0E]	0B]	0r	1r	0g]
.	.	.	1e	.
=23	=23	=23	=23	=23
0r	0r	0r	1.e	1r
.	.	.	.	1g
.	.	.	4d\	.
.	.	.	4c\	.
=24	=24	=24	=24	=24
0r	0r	0r	2B\	1g
.	.	.	2.c\	.
.	.	.	.	1a
.	.	.	4A/	.
.	.	.	[2c\	.
=25	=25	=25	=25	=25
0r	0r	0r	2c\]	1g
.	.	.	4B\	.
.	.	.	4A/	.
.	.	.	2G/	2r
.	.	.	[2A/	2e/
=26	=26	=26	=26	=26
0r	0r	0r	4A/]	1f
.	.	.	4G/	.
.	.	.	4F/	.
.	.	.	4E/	.
.	.	.	2D/	1f
.	.	.	[2A/	.
=27	=27	=27	=27	=27
0r	0r	0r	2A/]	1e
.	.	.	4G/	.
.	.	.	4F/	.
.	.	.	2G/	2r
.	.	.	2A/	2e/
=28	=28	=28	=28	=28
0r	0r	0r	1c	2e/
.	.	.	.	4d/
.	.	.	.	4c/
.	.	.	2r	2d/
.	.	.	[2c\	2e/
=29	=29	=29	=29	=29
0r	0r	0r	4c\]	1g
.	.	.	4B\	.
.	.	.	1e	.
.	.	.	.	1f
.	.	.	2d\	.
=30	=30	=30	=30	=30
1r	1r	0r	1e	2.e/
.	.	.	.	4c/
[1E	1B	.	2r	[1g
.	.	.	[2e\	.
=31	=31	=31	=31	=31
2E\]	1.B	0r	2e\]	2g/]
2E\	.	.	2e\	2g/
1E	.	.	1e	1g
.	2c\	.	.	.
=32	=32	=32	=32	=32
1D	1d	0r	0A	2.f/
.	.	.	.	4g/
1F	2.c\	.	.	4a/
.	.	.	.	4g/
.	.	.	.	[2a/
.	8B/L	.	.	.
.	8A/J	.	.	.
=33	=33	=33	=33	=33
0E	1B	0r	0e	2a/]
.	.	.	.	4g#i/
.	.	.	.	4f#i/
.	1B	.	.	1g#i
=34	=34	=34	=34	=34
0AA	0A	[0E	1e	1a
.	.	.	2r	2r
.	.	.	2e\	2a/
=35	=35	=35	=35	=35
0AA	1r	0E]	1e	1cc
.	1A	.	1e	1cc
=36	=36	=36	=36	=36
1E	1B	0G	1.e	0b
1E	1B	.	.	.
.	.	.	[2E/	.
=37	=37	=37	=37	=37
0AA	0c	0A	2E/]	2r
.	.	.	1E	2a/
.	.	.	.	1a
.	.	.	2F/	.
=38	=38	=38	=38	=38
0r	0r	0c	2E/	2g/
.	.	.	1F	1a
.	.	.	4E/	4g/
.	.	.	4D/	4f/
=39	=39	=39	=39	=39
2.C/	2r	0c	1G	1e
.	2E/	.	.	.
4D\	.	.	.	.
4E\	2G/	.	1r	1r
4C/	.	.	.	.
2F\	2A/	.	.	.
=40	=40	=40	=40	=40
2E\	2G/	0c	0r	0r
1F	1A	.	.	.
4E\	4G/	.	.	.
4D\	4F/	.	.	.
=41	=41	=41	=41	=41
1.C	2.E/	0c	[0e	1r
.	4F/	.	.	.
.	4G/	.	.	1cc
.	4E/	.	.	.
2AA/	[2A/	.	.	.
=42	=42	=42	=42	=42
1AA	2A/]	0c	1e]	0cc
.	4G/	.	.	.
.	4F/	.	.	.
1C	1E	.	1e	.
=43	=43	=43	=43	=43
1GG	1D	0d	1.g	2.b\
.	.	.	.	4a/
1GG	[1G	.	.	4b\
.	.	.	.	4a/
.	.	.	[2g\	4g/
.	.	.	.	4f/
=44	=44	=44	=44	=44
1C	1G]	0c	4g\]	2.e/
.	.	.	4f\	.
.	.	.	4e\	.
.	.	.	4d\	4f/
1r	1C	.	1e	2g/
.	.	.	.	[2a/
=45	=45	=45	=45	=45
0r	1D	0B	2r	2a/]
.	.	.	2d\	4g#i/
.	.	.	.	4f#i/
.	1E	.	1B	1g#i
=46	=46	=46	=46	=46
1AA	0E	0A	2.c\	0a
.	.	.	4B\	.
1AA	.	.	4c\	.
.	.	.	4d\	.
.	.	.	[2e\	.
=47	=47	=47	=47	=47
1E	1r	0B	4e\]	1g
.	.	.	4f\	.
.	.	.	2.g\	.
1E	1E	.	.	2r
.	.	.	4f\	.
.	.	.	[2e\	2b\
=48	=48	=48	=48	=48
1AA	1E	[0A	2e\]	2.cc\
.	.	.	2c\	.
.	.	.	.	4b\
1AA	1E	.	1e	4a/
.	.	.	.	4g/
.	.	.	.	[2a/
=49	=49	=49	=49	=49
1D	1F	0A]	1d	2a/]
.	.	.	.	2a/
1D	1F	.	2r	[1dd
.	.	.	[2d\	.
=50	=50	=50	=50	=50
1BB	1D	0G	2d\]	2dd\]
.	.	.	2.g\	2dd\
1C	[1E	.	.	2cc\
.	.	.	4f\	.
.	.	.	4e\	2cc\
.	.	.	4d\	.
=51	=51	=51	=51	=51
1AA	2E/]	1r	0c	2.cc\
.	2C/	.	.	.
.	.	.	.	8b/L
.	.	.	.	8a/J
1AA	2.E/	1A	.	1cc
.	4F/	.	.	.
=52	=52	=52	=52	=52
1GG	2.G/	2D/	2r	1.b
.	.	1G	1.d	.
.	8F/L	.	.	.
.	8E/J	.	.	.
2r	2.D/	.	.	.
2D\	.	2F/	.	[2a/
.	4F/	.	.	.
=53	=53	=53	=53	=53
2C/	2E/	1G	2.e\	4a/]
.	.	.	.	4g/
2E\	2C/	.	.	1g
.	.	.	8d\L	.
.	.	.	8c\J	.
1D	2F/	1A	1d	.
.	2D/	.	.	2f#i/
=54	=54	=54	=54	=54
0GG	2D/	0G	0B	0g
.	2.d\	.	.	.
.	4B\	.	.	.
.	[2d\	.	.	.
=55	=55	=55	=55	=55
2r	4d\]	0r	0r	0r
.	4c\	.	.	.
1G	4B\	.	.	.
.	4A/	.	.	.
.	2B\	.	.	.
2G\	[2d\	.	.	.
=56	=56	=56	=56	=56
1D	4d\]	0r	0r	0r
.	8c\L	.	.	.
.	8B\J	.	.	.
.	2A/	.	.	.
1F	2r	.	.	.
.	2A/	.	.	.
=57	=57	=57	=57	=57
1E	2B\	0r	0r	0r
.	2.c\	.	.	.
1D	.	.	.	.
.	8B/L	.	.	.
.	8A/J	.	.	.
.	2B\	.	.	.
=58	=58	=58	=58	=58
2.C/	2E/	0r	0r	0r
.	2.A/	.	.	.
8BB/L	.	.	.	.
8AA/J	.	.	.	.
1BB	.	.	.	.
.	8G#i/L	.	.	.
.	8F#i/J	.	.	.
.	2G#i/	.	.	.
=59	=59	=59	=59	=59
0AA	0A	0r	0r	1a
.	.	.	.	2a/
.	.	.	.	[2a/
=60	=60	=60	=60	=60
0r	0D	0r	1d	4a/]
.	.	.	.	4g/
.	.	.	.	4f/
.	.	.	.	4e/
.	.	.	1d	2f/
.	.	.	.	[2a/
=61	=61	=61	=61	=61
0r	0r	0r	1A	4a/]
.	.	.	.	4b\
.	.	.	.	1cc
.	.	.	1c	.
.	.	.	.	4b\
.	.	.	.	4a/
=62	=62	=62	=62	=62
0r	0r	0r	1B	4g/
.	.	.	.	4f/
.	.	.	.	4e/
.	.	.	.	4d/
.	.	.	1A	4e/
.	.	.	.	4c/
.	.	.	.	[2f/
=63	=63	=63	=63	=63
0r	0r	0r	2.G/	4f/]
.	.	.	.	4e/
.	.	.	.	1e
.	.	.	8F/L	.
.	.	.	8E/J	.
.	.	.	1F	.
.	.	.	.	2d/
=64	=64	=64	=64	=64
1AA	2r	0r	2E/	2e/
.	1A	.	1c	1e
1AA	.	.	.	.
.	2A/	.	2c\	2e/
=65	=65	=65	=65	=65
1D	2A/	0r	2d\	2f/
.	2A/	.	2d\	2f/
1C	1c	.	1e	1g
=66	=66	=66	=66	=66
1C	1G	0r	2.e\	2g/
.	.	.	.	2e/
.	.	.	4d\	.
1C	1G	.	4c\	2.e/
.	.	.	4B\	.
.	.	.	[2c\	.
.	.	.	.	8d/L
.	.	.	.	8e/J
=67	=67	=67	=67	=67
1GG	0G	0r	2c\]	1e
.	.	.	4B\	.
.	.	.	4A/	.
1GG	.	.	1B	2r
.	.	.	.	2d/
=68	=68	=68	=68	=68
1r	2r	0r	1c	1e
.	2C/	.	.	.
1C	1G	.	2r	1e
.	.	.	[2c\	.
=69	=69	=69	=69	=69
1AA	1A	0r	2c\]	1e
.	.	.	2c\	.
1AA	2A/	.	1c	1a
.	[2E/	.	.	.
=70	=70	=70	=70	=70
1E	4E/]	0r	2.B\	2.g/
.	4F/	.	.	.
.	2G/	.	.	.
.	.	.	4c\	8f/L
.	.	.	.	8e/J
1D	2A/	.	1d	1f
.	2B\	.	.	.
=71	=71	=71	=71	=71
0C	1c	0r	1G	1e
.	1c	.	2E/	1cc
.	.	.	[2G/	.
=72	=72	=72	=72	=72
1G	1d	0r	4G/]	2.b\
.	.	.	4A/	.
.	.	.	2B\	.
.	.	.	.	8a/L
.	.	.	.	8g/J
1F	2r	.	2c\	1a
.	2A/	.	2d\	.
=73	=73	=73	=73	=73
2.E\	2B\	0r	1e	1g
.	1c	.	.	.
4D\	.	.	.	.
2E\	.	.	1r	1r
[2F\	2A/	.	.	.
=74	=74	=74	=74	=74
2F\]	2c\	0r	0r	0r
2D\	2.d\	.	.	.
2F\	.	.	.	.
.	4c\	.	.	.
2G\	4B\	.	.	.
.	4A/	.	.	.
=75	=75	=75	=75	=75
1E	1G	0r	2.e\	2r
.	.	.	.	1g
.	.	.	8d\L	.
.	.	.	8c\J	.
1r	1r	.	2B\	.
.	.	.	[2c\	2e/
=76	=76	=76	=76	=76
0r	0r	0r	2c\]	2g/
.	.	.	2A/	2.a/
.	.	.	2c\	.
.	.	.	.	4g/
.	.	.	2d\	4f/
.	.	.	.	4e/
=77	=77	=77	=77	=77
2.G\	1r	0r	1B	1d
4F\	.	.	.	.
4E\	2.B\	.	1e	2r
4D\	.	.	.	.
[2E\	.	.	.	[2g/
.	4A/	.	.	.
=78	=78	=78	=78	=78
4E\]	2B\	0r	1e	4g/]
4D\	.	.	.	4f/
4C/	2c\	.	.	4e/
4BB/	.	.	.	4d/
2AA/	2.c\	.	2.e\	4e/
.	.	.	.	4c/
[2A\	.	.	.	[2cc\
.	4A/	.	4d\	.
=79	=79	=79	=79	=79
2A\]	2c\	0r	2e\	4cc\]
.	.	.	.	4b\
2D\	2d\	.	2f\	1a
1E	1B	.	1e	.
.	.	.	.	2g#i/
=80	=80	=80	=80	=80
1AA	1A	0r	0c	1a
[1C	1G	.	.	2r
.	.	.	.	[2e/
=81	=81	=81	=81	=81
1C]	[0E	0G	1c	4e/]
.	.	.	.	4f/
.	.	.	.	2.g/
1C	.	.	1c	.
.	.	.	.	4f/
.	.	.	.	4e/
.	.	.	.	4d/
=82	=82	=82	=82	=82
1AA	1E]	[0A	1e	2.c/
.	.	.	.	4A/
1AA	1E	.	1e	2a/
.	.	.	.	[2a/
=83	=83	=83	=83	=83
1D	1F	0A]	1d	2a/]
.	.	.	.	2a/
1D	1F	.	1d	1dd
=84	=84	=84	=84	=84
0GG	0G	0B	0d	2dd\
.	.	.	.	2.b\
.	.	.	.	4cc\
.	.	.	.	[2dd\
=85	=85	=85	=85	=85
1.D	1F	[0A	1.d	2dd\]
.	.	.	.	4cc\
.	.	.	.	4b\
.	1F	.	.	2.a/
2D\	.	.	2d\	.
.	.	.	.	4b\
=86	=86	=86	=86	=86
1AA	2E/	0A]	0e	1.cc
.	2E/	.	.	.
1AA	1E	.	.	.
.	.	.	.	2cc\
=87	=87	=87	=87	=87
1.C	2.E/	[0G	1e	1cc
.	8D/L	.	.	.
.	8C/J	.	.	.
.	[1E	.	2.e\	1cc
4BB/	.	.	.	.
4AA/	.	.	4f\	.
=88	=88	=88	=88	=88
1GG	2E/]	0G]	0g	1b
.	2D/	.	.	.
1GG	1D	.	.	1b
=89	=89	=89	=89	=89
1D	1r	[0F	2r	1.a
.	.	.	2.d\	.
[1D	1A	.	.	.
.	.	.	4e\	.
.	.	.	[2f\	4g/
.	.	.	.	4f/
=90	=90	=90	=90	=90
2D\]	1d	0F]	4f\]	2f/
.	.	.	4d\	.
2D\	.	.	1f	2d/
1D	2.d\	.	.	1a
.	.	.	4e\	.
.	8c\L	.	4d\	.
.	8d\J	.	.	.
=91	=91	=91	=91	=91
0AA	0e	[0E	1c	1a
.	.	.	2.c\	2r
.	.	.	.	2a/
.	.	.	8B/L	.
.	.	.	8A/J	.
=92	=92	=92	=92	=92
0r	2r	0E_	1e	1g
.	2.B\	.	.	.
.	.	.	2r	1g
.	8A/L	.	.	.
.	8B/J	.	.	.
.	2c\	.	2e\	.
=93	=93	=93	=93	=93
0r	2B\	0E_	2.e\	2.g/
.	1e	.	.	.
.	.	.	4f\	4a/
.	.	.	4g\	4b\
.	.	.	4e\	4cc\
.	4d\	.	[2g\	[2b\
.	4c\	.	.	.
=94	=94	=94	=94	=94
0r	4B\	0E]	4g\]	4b\]
.	4A/	.	4f\	4cc\
.	2c\	.	4e\	1a
.	.	.	4d\	.
.	1B	.	1e	.
.	.	.	.	2g#i/
=95	=95	=95	=95	=95
1r	1A	0F	1c	0a
1D	2r	.	1d	.
.	2D/	.	.	.
=96	=96	=96	=96	=96
2.GG/	2D/	0G	2.B\	0r
.	2E/	.	.	.
4AA/	.	.	4c\	.
2BB/	2D/	.	2d\	.
[2C/	[2E/	.	2c\	.
=97	=97	=97	=97	=97
2C/]	2E/]	[0G	1e	0r
4BB/	4D/	.	.	.
4AA/	4C/	.	.	.
2BB/	2D/	.	2d\	.
2C/	2E/	.	[2g\	.
=98	=98	=98	=98	=98
1r	1C	0G_	4g\]	2.g/
.	.	.	4f\	.
.	.	.	2e\	.
.	.	.	.	4a/
2GG/	1r	.	2d\	2b\
[2C/	.	.	[2e\	2cc\
=99	=99	=99	=99	=99
2C/]	2r	0G_	2e\]	2.cc\
2C/	2E/	.	4d\	.
.	.	.	4c\	8b/L
.	.	.	.	8a/J
2GG/	2D/	.	2d\	2b\
2C/	2C/	.	2e\	[2cc\
=100	=100	=100	=100	=100
1r	2.E/	0G]	2r	4cc\]
.	.	.	.	4c/
.	.	.	2c\	2e/
.	8D/L	.	.	.
.	8C/J	.	.	.
2GG/	2D/	.	2B\	2d/
[2C/	2C/	.	[2c\	[2e/
=101	=101	=101	=101	=101
2C/]	1.G	0r	2c\]	2e/]
2C/	.	.	4B\	4d/
.	.	.	4A/	4c/
2GG/	.	.	2B\	2d/
2C/	2G/	.	[2c\	2e/
=102	=102	=102	=102	=102
2AA/	1A	0r	2c\]	2e/
2.D\	.	.	2.d\	2.f/
.	1A	.	.	.
4AA/	.	.	4c\	4e/
2D\	.	.	2d\	[2f/
=103	=103	=103	=103	=103
2E\	2.G/	0r	2B\	4f/]
.	.	.	.	4e/
2C/	.	.	2c\	1e
.	8F/L	.	.	.
.	8E/J	.	.	.
1D	1F	.	1A	.
.	.	.	.	2d/
=104	=104	=104	=104	=104
1r	0E	0r	1B	0e
1AA	.	.	1c	.
=105	=105	=105	=105	=105
1E	1r	0G	2B\	0r
.	.	.	1e	.
1E	1B	.	.	.
.	.	.	[2e\	.
=106	=106	=106	=106	=106
0AA	1c	0A	2e\]	1r
.	.	.	4d\	.
.	.	.	4c\	.
.	1c	.	2.e\	1a
.	.	.	4f\	.
=107	=107	=107	=107	=107
0r	1d	0G	2.g\	1b
.	.	.	8f\L	.
.	.	.	8e\J	.
.	1B	.	1d	1g
=108	=108	=108	=108	=108
0r	1c	[0F	2r	1a
.	.	.	1f	.
.	[1c	.	.	2.a/
.	.	.	2f\	.
.	.	.	.	4a/
=109	=109	=109	=109	=109
0r	2c\]	0F]	2f\	2a/
.	2c\	.	2f\	2a/
.	1c	.	1f	2a/
.	.	.	.	2a/
=110	=110	=110	=110	=110
0r	2F/	0r	2r	2a/
.	2F/	.	2c\	2a/
.	2F/	.	2c\	2a/
.	4E/	.	2d\	4g/
.	4D/	.	.	4f/
=111	=111	=111	=111	=111
0r	2E/	0r	2B\	2g/
.	2F/	.	2A/	1a
.	1D	.	2r	.
.	.	.	2d\	4g/
.	.	.	.	4f/
=112	=112	=112	=112	=112
0r	2r	0r	2B\	2g/
.	2A/	.	2c\	1a
.	1B	.	1d	.
.	.	.	.	2g/
=113	=113	=113	=113	=113
0E	1B	0r	2r	0g
.	.	.	2e\	.
.	2r	.	2.e\	.
.	2B\	.	.	.
.	.	.	4d\	.
=114	=114	=114	=114	=114
1E	2c\	0r	4e\	0r
.	.	.	4f\	.
.	2.B\	.	2.g\	.
1E	.	.	.	.
.	4A/	.	4f\	.
.	[2G/	.	4e\	.
.	.	.	4d\	.
=115	=115	=115	=115	=115
2.C/	4G/]	0r	2e\	0r
.	4F/	.	.	.
.	4E/	.	2r	.
4D\	4D/	.	.	.
2E\	4C/	.	2.e\	.
.	4D/	.	.	.
2C/	4E/	.	.	.
.	4F/	.	8d\L	.
.	.	.	8c\J	.
=116	=116	=116	=116	=116
2E\	2G/	0r	4B\	0r
.	.	.	4G/	.
2F\	2A/	.	1c	.
1D	1F	.	.	.
.	.	.	2B\	.
=117	=117	=117	=117	=117
0C	1G	1r	1c	1.e
.	1c	1G	2r	.
.	.	.	2c\	2f/
=118	=118	=118	=118	=118
1r	1B	0G	1d	1g
1GG	1B	.	1d	1g
=119	=119	=119	=119	=119
1D	1A	0F	1d	1a
1D	1A	.	1d	[1a
=120	=120	=120	=120	=120
1AA	1.A	0E	0e	2a/]
.	.	.	.	1cc
1AA	.	.	.	.
.	[2c\	.	.	4b\
.	.	.	.	4a/
=121	=121	=121	=121	=121
1.C	2c\]	0E	1.e	1g
.	4B\	.	.	.
.	4A/	.	.	.
.	[1G	.	.	1cc
4BB/	.	.	2f\	.
4AA/	.	.	.	.
=122	=122	=122	=122	=122
1GG	2G/]	0r	0g	1b
.	4F/	.	.	.
.	4E/	.	.	.
1GG	2.D/	.	.	1b
.	4E/	.	.	.
=123	=123	=123	=123	=123
1D	4F/	0r	2.f\	2.a/
.	4G/	.	.	.
.	2.A/	.	.	.
.	.	.	4e\	4g/
1D	.	.	4d\	4f/
.	4G/	.	4c\	4e/
.	2A/	.	2d\	[2f/
=124	=124	=124	=124	=124
2E\	2.G/	0r	2B\	4f/]
.	.	.	.	4e/
2C/	.	.	2c\	1e
.	8F/L	.	.	.
.	8E/J	.	.	.
1D	1F	.	2.A/	.
.	.	.	.	2d/
.	.	.	4B\	.
=125	=125	=125	=125	=125
0AA	1E	0r	0c	[0e
.	1E	.	.	.
=126	=126	=126	=126	=126
0EE	0G	0E	0B	0e]
!!LO:LB:g=z
=127||	=127||	=127||	=127||	=127||
*>C	*>C	*>C	*>C	*>C
*clefF4	*clefGv2	*clefGv2	*clefGv2	*clefG2
*k[]	*k[]	*k[]	*k[]	*k[]
*M2/1	*M2/1	*M2/1	*M2/1	*M2/1
*met(C|)	*met(C|)	*met(C|)	*met(C|)	*met(C|)
!!!OMD: Facta autem hac voce
!!section: Facta autem hac voce
0r	0r	0r	0A	0r
=128	=128	=128	=128	=128
0r	0r	0r	1c	0e
.	.	.	1c	.
=129	=129	=129	=129	=129
0r	0r	0r	1B	1g
.	.	.	1c	1g
=130	=130	=130	=130	=130
0r	0r	0r	1d	1f
.	.	.	[1c	1g
=131	=131	=131	=131	=131
0AA	0r	0r	2c\]	0a
.	.	.	4B\	.
.	.	.	4A/	.
.	.	.	[1c	.
=132	=132	=132	=132	=132
1C	0E	0r	2c\]	0g
.	.	.	2d\	.
1C	.	.	1e	.
=133	=133	=133	=133	=133
1BB	1G	0r	0r	0r
1BB	1G	.	.	.
=134	=134	=134	=134	=134
1D	1F	0r	0r	0r
[1C	1G	.	.	.
=135	=135	=135	=135	=135
2C/]	0A	0r	0r	0r
4BB/	.	.	.	.
4AA/	.	.	.	.
2.C/	.	.	.	.
4D\	.	.	.	.
=136	=136	=136	=136	=136
0E	1G	0r	0e	1r
.	1r	.	.	1g
=137	=137	=137	=137	=137
0r	0r	0r	1e	2.g/
.	.	.	.	8a/L
.	.	.	.	8b/J
.	.	.	1e	2cc\
.	.	.	.	[2b\
=138	=138	=138	=138	=138
0r	0r	0r	1d	4b\]
.	.	.	.	4a/
.	.	.	.	2dd\
.	.	.	1e	2cc\
.	.	.	.	2b\
=139	=139	=139	=139	=139
0r	0r	0r	1.f	2.a/
.	.	.	.	4d/
.	.	.	.	1d
.	.	.	2f\	.
=140	=140	=140	=140	=140
1.C	1.c	0r	1e	1r
.	.	.	[1e	[1g
2C/	2c\	.	.	.
=141	=141	=141	=141	=141
1C	1c	0r	2e\]	2g/]
.	.	.	2e\	2g/
1G	1B	.	1d	1g
=142	=142	=142	=142	=142
1E	1B	0r	1e	1g
1C	[1c	.	1e	1g
=143	=143	=143	=143	=143
0F	1c]	0r	1A	0a
.	1A	.	[1c	.
=144	=144	=144	=144	=144
1E	2r	0r	2c\]	0g
.	2e\	.	2B\	.
1E	2.e\	.	1B	.
.	8d\L	.	.	.
.	8c\J	.	.	.
=145	=145	=145	=145	=145
1E	2B\	0r	1r	0r
.	2c\	.	.	.
1E	1G	.	2r	.
.	.	.	[2C/	.
=146	=146	=146	=146	=146
1C	1G	0r	4C/]	0r
.	.	.	4D/	.
.	.	.	4E/	.
.	.	.	4F/	.
1E	1r	.	4G/	.
.	.	.	4A/	.
.	.	.	4B\	.
.	.	.	4c\	.
=147	=147	=147	=147	=147
1F	1r	0r	4A/	0r
.	.	.	4G/	.
.	.	.	1c	.
1D	1F	.	.	.
.	.	.	2B\	.
=148	=148	=148	=148	=148
0C	1G	0r	1c	0e
.	1G	.	1c	.
=149	=149	=149	=149	=149
0r	0A	0r	1c	1e
.	.	.	1c	1e
=150	=150	=150	=150	=150
0r	2D/	0r	2.d\	2.f/
.	2F/	.	.	.
.	.	.	4c\	8e/L
.	.	.	.	8d/J
.	2G/	.	2B\	2e/
.	[2A/	.	[2c\	[2f/
=151	=151	=151	=151	=151
0r	4A/]	0r	4c\]	4f/]
.	4E/	.	4B\	4e/
.	2G/	.	1B	1e
.	1F	.	.	.
.	.	.	2A/	2d/
=152	=152	=152	=152	=152
1r	1E	0r	1B	0e
1AA	1A	.	2c\	.
.	.	.	2e\	.
=153	=153	=153	=153	=153
1E	1G	0B	2.e\	1r
.	.	.	8d\L	.
.	.	.	8c\J	.
1E	2.G/	.	1e	1g
.	8F/L	.	.	.
.	8G/J	.	.	.
=154	=154	=154	=154	=154
1D	2F/	0d	1f	1a
.	2A/	.	.	.
1GG	1G	.	2r	1b
.	.	.	[2g\	.
=155	=155	=155	=155	=155
0C	2r	0e	4g\]	0cc
.	.	.	4f\	.
.	2G/	.	4e\	.
.	.	.	4d\	.
.	2E/	.	2.c\	.
.	2G/	.	.	.
.	.	.	8B/L	.
.	.	.	8A/J	.
=156	=156	=156	=156	=156
1GG	2r	0g	1.d	1.b
.	1G	.	.	.
1r	.	.	.	.
.	4C/	.	[2e\	[2cc\
.	4D/	.	.	.
=157	=157	=157	=157	=157
0r	4E/	0g	2e\]	2cc\]
.	4F/	.	.	.
.	2G/	.	2d\	2b\
.	1C	.	2.e\	2.cc\
.	.	.	8d\L	8b/L
.	.	.	8c\J	8a/J
=158	=158	=158	=158	=158
2r	4G/	0g	2.d\	0b
.	4A/	.	.	.
2.G\	4B\	.	.	.
.	4c\	.	4c\	.
.	2d\	.	4B\	.
4F\	.	.	4A/	.
4E\	2e\	.	[2G/	.
4D\	.	.	.	.
=159	=159	=159	=159	=159
2.C/	2.e\	0g	4G/]	1r
.	.	.	4E/	.
.	.	.	1.e	.
4D\	8d\L	.	.	.
.	8c\J	.	.	.
1E	1B	.	.	1b
=160	=160	=160	=160	=160
1AA	1A	0a	1e	1cc
1r	2F/	.	1f	1cc
.	2F/	.	.	.
=161	=161	=161	=161	=161
1r	1G	0g	1d	1b
1C	1E	.	1e	1cc
=162	=162	=162	=162	=162
2D\	1r	0f	0d	2a/
2D\	.	.	.	2.dd\
1D	1A	.	.	.
.	.	.	.	8cc\L
.	.	.	.	8b\J
.	.	.	.	[2a/
=163	=163	=163	=163	=163
0AA	1A	0e	1c	4a/]
.	.	.	.	4b\
.	.	.	.	2cc\
.	1A	.	2r	2a/
.	.	.	2c\	[2cc\
=164	=164	=164	=164	=164
0r	1F	0f	1A	4cc\]
.	.	.	.	4b\
.	.	.	.	4a/
.	.	.	.	4g/
.	1D	.	1d	1a
=165	=165	=165	=165	=165
0r	2.E/	[0e	2.B\	1g
.	4F/	.	4A/	.
.	2G/	.	2B\	1r
.	[2A/	.	[2c\	.
=166	=166	=166	=166	=166
0r	2A/]	0e]	2c\]	1r
.	2G/	.	2B\	.
.	2A/	.	2c\	2r
.	2E/	.	2B\	2g/
=167	=167	=167	=167	=167
0r	2F/	[0d	2A/	2.a/
.	2G/	.	2B\	.
.	.	.	.	4g/
.	1D	.	2A/	2.a/
.	.	.	2D/	.
.	.	.	.	4g/
=168	=168	=168	=168	=168
0r	1r	0d]	2F/	2a/
.	.	.	2G/	1g
.	1D	.	1A	.
.	.	.	.	2f#i/
=169	=169	=169	=169	=169
1r	1G	0r	1B	1g
1C	1G	.	1c	2r
.	.	.	.	2e/
=170	=170	=170	=170	=170
0AA	1A	0r	1c	1e
.	1A	.	1c	1e
=171	=171	=171	=171	=171
1BB	1D	0r	1B	1d
1AA	[1A	.	1c	1e
=172	=172	=172	=172	=172
0BB	2A/]	0r	1B	0d
.	4G#i/	.	.	.
.	4F#i/	.	.	.
.	1G#i	.	1B	.
=173	=173	=173	=173	=173
1AA	1A	0r	0E	1c
1AA	2r	.	.	1cc
.	2A/	.	.	.
=174	=174	=174	=174	=174
1E	2B\	0r	1r	2b\
.	1c	.	.	2g/
1F	.	.	2r	1a
.	2d\	.	2c\	.
=175	=175	=175	=175	=175
1E	2e\	0r	2B\	2r
.	2E/	.	1c	2g/
1r	1F	.	.	1a
.	.	.	2d\	.
=176	=176	=176	=176	=176
2r	1E	0r	2.e\	2g/
2E\	.	.	.	1e
.	.	.	4d\	.
1F	2r	.	2c\	.
.	2D/	.	2A/	2d/
=177	=177	=177	=177	=177
1E	1G	0r	1B	1e
1E	1G	.	1c	1g
=178	=178	=178	=178	=178
0D	1A	0r	1d	1f
.	1A	.	1d	[1f
=179	=179	=179	=179	=179
1.D	[0A	0r	1A	2f/]
.	.	.	.	2f/
.	.	.	1d	1f
4C/	.	.	.	.
4BB/	.	.	.	.
=180	=180	=180	=180	=180
0AA	0A]	0r	2r	1r
.	.	.	1c	.
.	.	.	.	1e
.	.	.	4B\	.
.	.	.	4A/	.
=181	=181	=181	=181	=181
0r	0r	0r	2G/	1e
.	.	.	2.A/	.
.	.	.	.	2.f/
.	.	.	4G/	.
.	.	.	4A/	.
.	.	.	4B\	4e/
=182	=182	=182	=182	=182
0r	0r	0r	2c\	4f/
.	.	.	.	4e/
.	.	.	2d\	1a
.	.	.	1B	.
.	.	.	.	2g#i/
=183	=183	=183	=183	=183
0r	0r	0r	2A/	1a
.	.	.	2D/	.
.	.	.	2E/	2g/
.	.	.	2F/	[2a/
=184	=184	=184	=184	=184
0r	0r	0r	1G	4a/]
.	.	.	.	4g/
.	.	.	.	1g
.	.	.	1A	.
.	.	.	.	2f#i/
=185	=185	=185	=185	=185
0E	1r	0r	1G	1g
.	1C	.	2r	2r
.	.	.	2G/	2g/
=186	=186	=186	=186	=186
1D	1F	0d	1A	1f
1D	1F	.	1A	1f
=187	=187	=187	=187	=187
1C	1E	0e	1c	1g
1C	1E	.	2r	1g
.	.	.	2c\	.
=188	=188	=188	=188	=188
1F	1D	0f	1A	1a
1F	1D	.	1A	1a
=189	=189	=189	=189	=189
1C	1E	0e	1c	1.g
2r	2r	.	2r	.
2C/	2G/	.	2c\	2g/
=190	=190	=190	=190	=190
1GG	1G	0d	1B	1b
1BB	1G	.	1B	1b
=191	=191	=191	=191	=191
1AA	1A	0c	1E	1cc
1AA	1A	.	1E	1cc
=192	=192	=192	=192	=192
*M3/1	*M3/1	*M3/1	*M3/1	*M3/1
*met(3)	*met(3)	*met(3)	*met(3)	*met(3)
0.GG	0D	0.B	1G	0dd
.	.	.	0d	.
.	[1G	.	.	1r
=193	=193	=193	=193	=193
0C	1G]	0.c	0e	0g
.	1E	.	.	.
1AA	1C	.	1e	1a
=194	=194	=194	=194	=194
1D	1F	0.d	1f	1a
0D	0F	.	0f	0a
=195	=195	=195	=195	=195
0.GG	0.D	[0.d	0.g	0b
.	.	.	.	1r
=196	=196	=196	=196	=196
0.r	0D	0.d]	0f	0a
.	1D	.	1f	1a
=197	=197	=197	=197	=197
0.r	1E	0.r	1e	1g
.	1D	.	1.f	1.a
.	1F	.	.	.
.	.	.	2e\	2g/
=198	=198	=198	=198	=198
0.r	1A	0.r	2e\	0cc
.	.	.	4d\	.
.	.	.	4c\	.
.	0G	.	0d	.
.	.	.	.	1b
=199	=199	=199	=199	=199
0.r	0C	0.r	0c	0.cc
.	1r	.	1r	.
=200	=200	=200	=200	=200
0.C	0.E	0.r	0.G	0.r
=201	=201	=201	=201	=201
1C	1E	0.r	1G	0.r
1D	1A	.	1F	.
1D	1A	.	1F	.
=202	=202	=202	=202	=202
1AA	1A	0.r	1E	0.r
1C	1G	.	1E	.
1BB	1G	.	1D	.
=203	=203	=203	=203	=203
1AA	1A	0.r	1E	0.r
1BB	1A	.	1D	.
1BB	1G#i	.	1D	.
=204	=204	=204	=204	=204
*M2/1	*M2/1	*M2/1	*M2/1	*M2/1
*met(C|)	*met(C|)	*met(C|)	*met(C|)	*met(C|)
0AA	0A	0r	1E	0cc
.	.	.	2r	.
.	.	.	[2e\	.
=205	=205	=205	=205	=205
0r	0r	0r	2e\]	1b
.	.	.	2.d\	.
.	.	.	.	[1a
.	.	.	4c\	.
.	.	.	[2f\	.
=206	=206	=206	=206	=206
0r	0r	0r	4f\]	2a/]
.	.	.	4e\	.
.	.	.	1e	2g/
.	.	.	.	2.f/
.	.	.	2d\	.
.	.	.	.	8e/L
.	.	.	.	8d/J
=207	=207	=207	=207	=207
1r	0A	0r	0e	0c
1AA	.	.	.	.
=208	=208	=208	=208	=208
1C	2G/	0r	1E	0r
.	2.G/	.	.	.
1C	.	.	1r	.
.	4F/	.	.	.
.	4E/	.	.	.
.	4D/	.	.	.
=209	=209	=209	=209	=209
1E	2C/	0r	0r	0r
.	1c	.	.	.
1D	.	.	.	.
.	2B\	.	.	.
=210	=210	=210	=210	=210
0C	0c	0r	0G	2.e/
.	.	.	.	4d/
.	.	.	.	4e/
.	.	.	.	4f/
.	.	.	.	[2g/
=211	=211	=211	=211	=211
0r	0r	0r	1E	2g/]
.	.	.	.	4f/
.	.	.	.	4e/
.	.	.	1G	2d/
.	.	.	.	2e/
=212	=212	=212	=212	=212
0r	0r	0r	1A	2f/
.	.	.	.	1e
.	.	.	1F	.
.	.	.	.	2d/
=213	=213	=213	=213	=213
0r	0r	0r	1E	1e
.	.	.	1r	1r
=214	=214	=214	=214	=214
*M3/1	*M3/1	*M3/1	*M3/1	*M3/1
*met(3)	*met(3)	*met(3)	*met(3)	*met(3)
0AA	0A	0.r	0E	0cc
1AA	1A	.	1e	1cc
=215	=215	=215	=215	=215
0AA	0A	0.r	0e	0cc
1E	1G	.	1e	1b
=216	=216	=216	=216	=216
1F	1A	0.r	1d	1a
1E	1B	.	1e	1a
1E	1B	.	1e	1g#i
=217	=217	=217	=217	=217
*M2/1	*M2/1	*M2/1	*M2/1	*M2/1
*met(C|)	*met(C|)	*met(C|)	*met(C|)	*met(C|)
1AA	1A	0r	1.c	1a
1C	2.E/	.	.	1g
.	.	.	4B\	.
.	4F/	.	4A/	.
=218	=218	=218	=218	=218
0GG	2.G/	0d	2.B\	0g
.	4A/	.	4G/	.
.	1B	.	1G	.
=219	=219	=219	=219	=219
0C	1.c	0e	2r	1g
.	.	.	2G/	.
.	.	.	2.E/	2r
.	4B\	.	.	[2g/
.	4A/	.	4F/	.
=220	=220	=220	=220	=220
0r	2.B\	0d	2.G/	4g/]
.	.	.	.	4a/
.	.	.	.	2.b\
.	4G/	.	4A/	.
.	[1G	.	1B	.
.	.	.	.	4a/
.	.	.	.	4g/
.	.	.	.	4f/
=221	=221	=221	=221	=221
1.C	1G]	0c	2.E/	2.g/
.	.	.	4F/	8a/L
.	.	.	.	8b/J
.	1E	.	2G/	1cc
4BB/	.	.	2A/	.
4AA/	.	.	.	.
=222	=222	=222	=222	=222
2BB/	2.G/	0d	2r	2r
2GG/	.	.	2D/	1g
.	8F/L	.	.	.
.	8E/J	.	.	.
1GG	1D	.	1G	.
.	.	.	.	4f/
.	.	.	.	4e/
=223	=223	=223	=223	=223
1.D	2r	0d	0A	2.f/
.	1F	.	.	.
.	.	.	.	4d/
.	.	.	.	1d
4C/	4E/	.	.	.
4BB/	4D/	.	.	.
=224	=224	=224	=224	=224
1AA	2.E/	0c	0A	1a
.	4C/	.	.	.
1AA	1C	.	.	1a
=225	=225	=225	=225	=225
*M3/1	*M3/1	*M3/1	*M3/1	*M3/1
*met(3)	*met(3)	*met(3)	*met(3)	*met(3)
0GG	0.G	0.B	0D	0b
1GG	.	.	1d	1r
=226	=226	=226	=226	=226
1G	0.r	0.B	1d	1g
0G	.	.	1d	1g
.	.	.	1d	[1g
=227	=227	=227	=227	=227
1G	1c	0.r	0.e	1g]
0G	1c	.	.	0g
.	1c	.	.	.
=228	=228	=228	=228	=228
1D	0.A	0.r	1d	1f
0D	.	.	0d	0f
=229	=229	=229	=229	=229
0AA	1A	0.r	0c	0e
.	0A	.	.	.
1AA	.	.	1c	1e
=230	=230	=230	=230	=230
0C	0G	0.r	0c	0e
1C	1G	.	1c	1e
=231	=231	=231	=231	=231
0GG	1.G	0.r	1.B	0d
.	2A/	.	2c\	.
1GG	1B	.	1d	1g
=232	=232	=232	=232	=232
1.C	0c	0.r	0e	1.g
2D\	.	.	.	2f/
1E	1B	.	1e	1g
=233	=233	=233	=233	=233
1F	1A	0.r	1d	0a
0E	0B	.	0e	.
.	.	.	.	1g#i
=234	=234	=234	=234	=234
*M2/1	*M2/1	*M2/1	*M2/1	*M2/1
*met(C|)	*met(C|)	*met(C|)	*met(C|)	*met(C|)
1AA	2.A/	0E	2.e\	1a
.	4B\	.	4d\	.
2r	4c\	.	2c\	2r
.	4d\	.	.	.
2AA/	[2e\	.	2A/	2cc\
=235	=235	=235	=235	=235
2E\	2e\]	1G	2B\	2b\
2E\	2E/	.	2e\	2b\
1AA	2E/	1A	2c\	2.a/
.	2E/	.	[2e\	.
.	.	.	.	4g/
=236	=236	=236	=236	=236
2.AA/	2r	1c	2e\]	4a/
.	.	.	.	4b\
.	2E/	.	2e\	2.cc\
4GG/	.	.	.	.
4AA/	2E/	1c	2e\	.
4BB/	.	.	.	8b/L
.	.	.	.	8a/J
2C/	2E/	.	2e\	2g/
=237	=237	=237	=237	=237
2AA/	4C/	0c	1e	2a/
.	4D/	.	.	.
2.C/	4E/	.	.	2g/
.	4F/	.	.	.
.	2G/	.	2r	1cc
4BB/	.	.	.	.
4AA/	[2A/	.	2e\	.
4GG/	.	.	.	.
=238	=238	=238	=238	=238
2AA/	2A/]	1c	2.e\	2cc\
2AA/	2A/	.	.	1cc
.	.	.	4f\	.
1GG	2D/	1d	2g\	.
.	2G/	.	[2g\	2b\
=239	=239	=239	=239	=239
1r	1A	1c	4g\]	1cc
.	.	.	8f\L	.
.	.	.	8e\J	.
.	.	.	2f\	.
1E	1G	1B	1g	2r
.	.	.	.	2g/
=240	=240	=240	=240	=240
1F	2r	1A	2c\	2a/
.	2D/	.	2d\	2.a/
1E	1G	1B	[1e	.
.	.	.	.	8g/L
.	.	.	.	8f/J
.	.	.	.	2g/
=241	=241	=241	=241	=241
1AA	2r	0A	2e\]	1a
.	2E/	.	2e\	.
2D\	2F/	.	1d	2a/
2D\	2F/	.	.	2a/
=242	=242	=242	=242	=242
[0GG	1D	0G	1r	2.b\
.	.	.	.	4a/
.	2.d\	.	2r	4b\
.	.	.	.	4cc\
.	.	.	2d\	[2dd\
.	8c\L	.	.	.
.	8B\J	.	.	.
=243	=243	=243	=243	=243
0GG]	2B\	1r	2B\	4dd\]
.	.	.	.	4cc\
.	2c\	.	2G/	1cc
.	1d	1G	1g	.
.	.	.	.	2b\
=244	=244	=244	=244	=244
0r	1c	0A	1e	2.cc\
.	.	.	.	4b\
.	1F	.	1f	4a/
.	.	.	.	4g/
.	.	.	.	[2a/
=245	=245	=245	=245	=245
1r	1G	0B	0d	2a/]
.	.	.	.	4g/
.	.	.	.	4f/
1GG	1G	.	.	1g
=246	=246	=246	=246	=246
1.D	2.F/	0A	1d	0a
.	4E/	.	.	.
.	4D/	.	2d\	.
.	4C/	.	.	.
2AA/	2E/	.	4c\	.
.	.	.	4d\	.
=247	=247	=247	=247	=247
2.C/	2.E/	0G	4e\	1r
.	.	.	4f\	.
.	.	.	1g	.
8BB/L	8D/L	.	.	.
8AA/J	8C/J	.	.	.
1GG	1D	.	.	1b
.	.	.	2d\	.
=248	=248	=248	=248	=248
1D	2r	1F	2.f\	2.a/
.	1A	.	.	.
.	.	.	8e\L	4g/
.	.	.	8d\J	.
1AA	.	1E	1c	4a/
.	.	.	.	4b\
.	2A/	.	.	2cc\
=249	=249	=249	=249	=249
1D	1A	1F	1d	2a/
.	.	.	.	2.dd\
1GG	1B	1G	2r	.
.	.	.	.	4cc\
.	.	.	2d\	4b\
.	.	.	.	4a/
=250	=250	=250	=250	=250
0C	1c	0G	1e	1g
.	1C	.	1e	2.g/
.	.	.	.	4a/
=251	=251	=251	=251	=251
0BB	1D	1r	1d	2.b\
.	.	.	.	4cc\
.	1D	1G	1B	1dd
=252	=252	=252	=252	=252
1AA	1E	1A	1c	2r
.	.	.	.	1cc
1C	1e	1G	2r	.
.	.	.	2c\	2cc\
=253	=253	=253	=253	=253
1D	2.d\	1F	1f	2a/
.	.	.	.	2.dd\
.	4c\	.	.	.
1GG	4B\	1G	2d\	.
.	4A/	.	.	4cc\
.	4G/	.	[2g\	4b\
.	4F/	.	.	4a/
=254	=254	=254	=254	=254
1r	1E	0G	4g\]	2b\
.	.	.	4f\	.
.	.	.	4e\	2.g/
.	.	.	4d\	.
1C	1E	.	1e	.
.	.	.	.	4f/
.	.	.	.	2e/
=255	=255	=255	=255	=255
1D	1r	0F	2d\	4f/
.	.	.	.	4e/
.	.	.	2A/	4d/
.	.	.	.	4c/
1D	1D	.	1A	1d
=256	=256	=256	=256	=256
1AA	1A	0E	2r	[0el
.	.	.	1c	.
1AA	1A	.	.	.
.	.	.	4B\	.
.	.	.	4A/	.
=257	=257	=257	=257	=257
[0EEl	1G	[0El	0B	0e_
.	1G	.	.	.
=258	=258	=258	=258	=258
0EE]	0Gl	0E]	0Bl	0e]
==	==	==	==	==
*-	*-	*-	*-	*-
!!!RDF**kern: l=long note in original notation
!!!RDF**kern: i=editorial accidental
!!!ENC:	Victoria Chang
!!!END:	2011/03/22/
!!!SMS:	Smijers, No. 41, afl. 24
!!!EED:	Jesse Rodin
!!!EEV: 2012/04/24/
!!attribution-level@Jos: 5 (doubtful)
!!!ONB:	Translated from MusicXML and edited on 2011/04/04/ by Craig Sapp
!!muse2ps: u^(2) @{OTL2}^C^@{COA}?\n@{SCT}^I150v90,90,90,90,130Q16
